outputs/icons/action/delete_sharp.svg

<svg xmlns="http://www.w3.org/2000/svg" width="1200" height="1200" fill="none"><g clip-path="url(#a)"><path fill="#000" d="M300 1050h600V350H300zm650-850H775l-50-50H475l-50 50H250v100h700z"/></g><defs><clipPath id="a"><path fill="#fff" d="M0 0h1200v1200H0z"/></clipPath></defs></svg>

<svg width="1200" height="1200" viewBox="0 0 1200 1200" fill="none" xmlns="http://www.w3.org/2000/svg"><g clip-path="url(#clip0_117_758)"><path d="M300 1050H900V350H300V1050ZM950 200H775L725 150H475L425 200H250V300H950V200Z" fill="black"/></g><defs><clipPath id="clip0_117_758"><path width="24" fill="white" d="M0 0H1200V1200H0V0z"/></clipPath></defs></svg>
